icons/layout_stacked.svg

<?xml version="1.0" encoding="UTF-8" standalone="no"?>
<!-- Created with Inkscape (http://www.inkscape.org/) -->
<svg
   xmlns:svg="http://www.w3.org/2000/svg"
   xmlns="http://www.w3.org/2000/svg"
   version="1.0"
   width="64"
   height="64"
   id="svg4960">
  <defs
     id="defs4962" />
  <g
     id="layer1"
     style="display:inline">
    <path
       d="M 28.208135,35.863462 L 15.0257,35.8156 L 15.0257,19.726076 L 15.0257,3.6365615 L 33.362511,3.6365615 L 51.699324,3.6365615 L 51.699324,19.818182 L 51.699324,35.999802 L 46.544946,35.955558 C 43.710039,35.93123 35.458474,35.889783 28.208135,35.863459 L 28.208135,35.863462 z"
       id="path5498"
       style="fill:#37c8ab;fill-opacity:1;stroke:#37c8ab;stroke-width:0.22712311;stroke-linecap:round;stroke-linejoin:round;stroke-miterlimit:4;stroke-dasharray:none;stroke-opacity:1" />
    <path
       d="M 28.096253,55.317961 L 14.993608,55.270078 L 14.993608,46.060117 L 14.993608,36.850145 L 22.69338,36.970648 C 26.928282,37.036924 35.187057,37.091149 41.046231,37.091149 L 51.699275,37.091149 L 51.699275,46.272724 L 51.699275,55.454298 L 46.449086,55.410065 C 43.561483,55.38574 35.302708,55.344291 28.096253,55.317957 L 28.096253,55.317961 z"
       id="path5500"
       style="fill:#afdde9;fill-opacity:1;stroke:#afdde9;stroke-width:0.22722068;stroke-linecap:round;stroke-linejoin:round;stroke-miterlimit:4;stroke-dasharray:none;stroke-opacity:1" />
    <path
       d="M 15.034927,57.879505 L 15.034927,56.304654 L 22.559341,56.424891 C 26.697768,56.491019 34.947262,56.545235 40.891549,56.545366 L 51.699344,56.545606 L 51.699344,57.999986 L 51.699344,59.454367 L 33.367135,59.454367 L 15.034927,59.454367 L 15.034927,57.879505 z"
       id="path5502"
       style="fill:#3771c8;fill-opacity:1;stroke:#3771c8;stroke-width:0.22708315;stroke-linecap:round;stroke-linejoin:round;stroke-miterlimit:4;stroke-dasharray:none;stroke-opacity:1" />
  </g>
  <g
     id="layer4"
     style="display:inline">
    <text
       x="20.181816"
       y="23.454546"
       id="text5486"
       xml:space="preserve"
       style="font-size:12px;font-style:normal;font-weight:normal;fill:#000000;fill-opacity:1;stroke:none;stroke-width:1px;stroke-linecap:butt;stroke-linejoin:miter;stroke-opacity:1;font-family:Bitstream Vera Sans"><tspan
         x="20.181816"
         y="23.454546"
         id="tspan5488">Tree</tspan></text>
    <text
       x="22.181818"
       y="49.81818"
       id="text5490"
       xml:space="preserve"
       style="font-size:12px;font-style:normal;font-weight:normal;fill:#000000;fill-opacity:1;stroke:none;stroke-width:1px;stroke-linecap:butt;stroke-linejoin:miter;stroke-opacity:1;font-family:Bitstream Vera Sans"><tspan
         x="22.181818"
         y="49.81818"
         id="tspan5492">Log</tspan></text>
    <text
       x="25.636364"
       y="59.090908"
       id="text5494"
       xml:space="preserve"
       style="font-size:3.5px;font-style:normal;font-weight:normal;fill:#000000;fill-opacity:1;stroke:none;stroke-width:1px;stroke-linecap:butt;stroke-linejoin:miter;stroke-opacity:1;font-family:Bitstream Vera Sans"><tspan
         x="25.636364"
         y="59.090908"
         id="tspan5496">Chatbar</tspan></text>
    <rect
       width="38"
       height="57.272728"
       x="14.363636"
       y="2.909091"
       id="rect4970"
       style="fill:none;fill-opacity:1;stroke:#000000;stroke-width:1.24699998;stroke-linecap:round;stroke-linejoin:round;stroke-miterlimit:4;stroke-dasharray:none;stroke-opacity:1;display:inline" />
    <path
       d="M 14.363636,36.363636 L 52.181818,36.545455"
       id="path5481"
       style="fill:none;fill-rule:evenodd;stroke:#000000;stroke-width:1px;stroke-linecap:butt;stroke-linejoin:miter;stroke-opacity:1;display:inline" />
    <path
       d="M 14.181818,55.818181 L 52.181818,56"
       id="path5483"
       style="fill:none;fill-rule:evenodd;stroke:#000000;stroke-width:1px;stroke-linecap:butt;stroke-linejoin:miter;stroke-opacity:1;display:inline" />
  </g>
</svg>

<?xml version="1.0" encoding="UTF-8" standalone="no"?><!-- Created with Inkscape (http://www.inkscape.org/) --><svg xmlns:svg="http://www.w3.org/2000/svg" xmlns="http://www.w3.org/2000/svg" version="1.0" width="64" height="64" id="svg4960"><g stroke-linejoin="round" stroke-linecap="round" stroke-width=".227"><path d="m28.21 35.863l-13.182-.048v-16.09-16.09h18.337 18.337v16.182 16.182l-5.154-.044c-2.835-.024-11.09-.066-18.337-.092z" fill="#37c8ab" stroke="#37c8ab"/><path d="m28.1 55.32l-13.1-.048v-9.21-9.21l7.7.121c4.235.066 12.494.121 18.353.121h10.653v9.182 9.182l-5.25-.044c-2.888-.024-11.146-.066-18.353-.092z" fill="#afdde9" stroke="#afdde9"/><path d="m15.03 57.88v-1.575l7.524.12c4.138.066 12.388.12 18.332.12h10.808v1.454 1.454h-18.332-18.332v-1.575z" fill="#3771c8" stroke="#3771c8"/></g><g font-family="Bitstream Vera Sans"><g font-size="12"><text x="20.18" y="23.455"><tspan x="20.18" y="23.455">Tree</tspan></text><text x="22.18" y="49.818"><tspan x="22.18" y="49.818">Log</tspan></text></g><text x="25.636" y="59.09" font-size="3.5"><tspan x="25.636" y="59.09">Chatbar</tspan></text></g><g fill="none" stroke="#000"><path stroke-linejoin="round" stroke-linecap="round" stroke-width="1.247" d="m14.364 2.909h38v57.27h-38z"/><g fill-rule="evenodd"><path d="m14.364 36.36l37.818.182"/><path d="m14.182 55.818l38 .182"/></g></g></svg>
